X: 631
T: Ku qiuxiang
%%abc-version 2.0
%%abcx-abcm2ps-target-version 5.9.1 (29 Sep 2008)
%%abc-creator hum2abc beta
%%abcx-conversion-date 2013/10/02 07:52:30
%%abc-edited-by Helmut Schaffrath
%%humdrum-veritas 657102500
%%humdrum-veritas-data 3533655818
%%continueall 1
%%barnumbers 0
L: 1/8
M: 2/4
K: F
G c c A/ G/ [I:setbarnb 1]| 
F AG2 | 
f> d c A | 
F> D C/ D/ C | 
D F G c | 
A/ c/G2F | 
D> F C/ D/ C/ A,/ | 
G,4 |]  



